icons/svg/person-multiple.svg

<svg width="24" height="24" viewBox="0 0 24 24" fill="none" xmlns="http://www.w3.org/2000/svg">
<path d="M12.9332 7.28017C12.9332 7.99618 12.7055 8.65901 12.3186 9.20022C11.7191 10.0388 10.7374 10.5853 9.62803 10.5853C7.80266 10.5853 6.32291 9.10555 6.32291 7.28017C6.32291 5.4548 7.80266 3.97504 9.62803 3.97504C11.3317 3.97504 12.7344 5.26411 12.9138 6.92011C12.9266 7.03837 12.9332 7.1585 12.9332 7.28017Z" stroke="currentColor" stroke-width="1.5" stroke-linecap="round" stroke-linejoin="round"/>
<path d="M15.6473 20.025C16.1221 20.025 16.5071 19.6143 16.5071 19.1078V17.9651C16.509 16.4177 15.2735 15.072 13.5355 14.2449C12.3828 13.6962 11.0089 13.3757 9.62854 13.3757C6.16694 13.3757 2.75 15.3913 2.75 17.9651V19.1078C2.75 19.6143 3.13495 20.0249 3.60982 20.0249L15.6473 20.025Z" stroke="currentColor" stroke-width="1.5" stroke-linecap="round" stroke-linejoin="round"/>
<path d="M19 20.025H20.3328C20.8394 20.025 21.25 19.6144 21.25 19.1078V18.2005C21.2521 16.6385 19.7357 15.3086 17.7287 14.6261M15.434 5.88934C16.7215 6.19688 17.6788 7.35502 17.6788 8.73673C17.6788 10.3535 16.3682 11.6641 14.7514 11.6641C14.6253 11.6641 14.5012 11.6562 14.3793 11.6407C14.116 11.6073 13.8637 11.539 13.627 11.4404" stroke="currentColor" stroke-width="1.5" stroke-linecap="round" stroke-linejoin="round"/>
</svg>

<svg xmlns="http://www.w3.org/2000/svg" width="24" height="24" fill="none" viewBox="0 0 24 24"><path stroke="currentColor" stroke-linecap="round" stroke-linejoin="round" stroke-width="1.5" d="M12.933 7.28a3.3 3.3 0 0 1-3.305 3.305 3.305 3.305 0 1 1 3.305-3.305m2.714 12.745c.475 0 .86-.41.86-.917v-1.143c.002-1.547-1.234-2.893-2.972-3.72a9.2 9.2 0 0 0-3.906-.87c-3.462 0-6.879 2.016-6.879 4.59v1.143c0 .506.385.917.86.917zm3.353 0h1.333c.506 0 .917-.41.917-.917V18.2c.002-1.562-1.514-2.892-3.521-3.575M15.434 5.89a2.929 2.929 0 1 1-1.807 5.551"/></svg>
